X: 1
T:Bourr\'ee
R:Bourr\'ee
O:France
M:4/4
K:GMix
f4 e2 | d3 A de | fe df ed | f2 e2 d2 |\
f4 e2 | d4 c2 | B2 BA Bc | d2 B2 G2 :|
|:\
gd Bc d2 | gd Bc d2 | g2 gf ga | b2 a2 g2 | \
gd Bc d2 | gd Bc d2 | g2 gf ga | g6 :|
